X: 10972
T: Drunkard's Path, The
R: hornpipe
M: 4/4
K: Gmajor
(3DEF|:G2B>G (3DGB (3def|g>g f>g c>a B>g|A>f G>e F>d (3d^cd|(3efg f>e (3ded (3cBA|
G2B>G (3DGB (3def|g>b a>f g>d ^c>d|c>a B>g A>f d>c|(3Bcd A>F G2 (3DEF:|
|:G>DG>B G>Bd>B|d>gd>g b>gb>d'|c'>d'b>c' a>bg>d|(3efg f>e d>c A>F|
G>DG>B G>Bd>B|d>gd>g b>gb>d'|^c'>d' =c'>a f>d c>A|(3Bcd A>F G2 (3DEF:|

